X: 32629
T: Pleasure Palace, The
R: jig
M: 6/8
K: Amajor
|:Ace abf-|fga ecA|def ega|ecA ~B3|
Ace abf-|fga ecA|def ecA|1 BGB AcB:|2 BGB ABc||
|:d2f c2e|~B3 AGF|~E3 EcA|~B3 Bcd|c2E FAc|
BAG ABc|1 def edc|~B3 B2c:|2 def ega-|aec ~B3||

